X: 15510
T: Glenside, The
R: polka
M: 2/4
K: Edorian
|:B2 B>A|FA DE|B2 B>A|B/c/d ed|
B2 B>A|FA DE|FD AF|E2 E2:|
|:Be ed/e/|f>e dA|Be ed|e/f/e/d/ Bc|
d>e dB|AF DE/F/|GE FD|E2 E2:|

